!!!!SEGMENT: Jos/Jos2514-Vultum_tuum_deprecabuntur.krn
!!!COM: Josquin des Prez
!!!CDT: ~1450-1521/08/27
!!!OTL@@LAT: Vultum tuum deprecabuntur [7 sections]
!!!OTL2@@LAT: Sancta dei genitrix
!!!OTL3@@LAT: O intemerata virgo
!!!OTL4@@LAT: O Maria
!!!OTL5@@LAT: Mente tota tibi supplicamus
!!!OTL6@@LAT: Ora pro nobis
!!!OTL7@@LAT: Christi, fili dei
!!!AGN: Motet; Motet cycle
!!!SCT: NJE 25.14
!!!SCA: New Josquin Edition 25.14
!!!jrpid: Jos2514
!!!voices: 4
**kern	**text	**kern	**text	**kern	**text	**text	**kern	**text
*staff4	*	*staff3	*	*staff2	*	*	*staff1	*
*Ivox	*	*Ivox	*	*Ivox	*	*	*Ivox	*
*I"Bassus	*	*I"Tenor	*	*I"Altus	*	*	*I"Superius	*
*I'B	*	*I'T	*	*I'A	*	*	*I'S	*
*>[A,B,C,D,E,F]	*	*>[A,B,C,D,E,F]	*	*>[A,B,C,D,E,F]	*	*	*>[A,B,C,D,E,F]	*
*>Part1[A]	*	*>Part1[A]	*	*>Part1[A]	*	*	*>Part1[A]	*
*>Part2[B]	*	*>Part2[B]	*	*>Part2[B]	*	*	*>Part2[B]	*
*>Part3[C]	*	*>Part3[C]	*	*>Part3[C]	*	*	*>Part3[C]	*
*>Part4[D]	*	*>Part4[D]	*	*>Part4[D]	*	*	*>Part4[D]	*
*>Part5[E]	*	*>Part5[E]	*	*>Part5[E]	*	*	*>Part5[E]	*
*>Part6[F]	*	*>Part6[F]	*	*>Part6[F]	*	*	*>Part6[F]	*
*clefF4	*	*clefGv2	*	*clefGv2	*	*	*clefG2	*
*k[b-]	*	*k[b-]	*	*k[b-]	*	*	*k[b-]	*
*>A	*	*>A	*	*>A	*	*	*>A	*
*M2/1	*	*M2/1	*	*M2/1	*	*	*M2/1	*
*met(C|)	*	*met(C|)	*	*met(C|)	*	*	*met(C|)	*
!!section: Prima pars: Vultum tuum deprecabuntur
=1-	=1-	=1-	=1-	=1-	=1-	=1-	=1-	=1-
[0G	Vul-	0G	Vul-	[0d	Vul-	&	[0g	Vul-
=2	=2	=2	=2	=2	=2	=2	=2	=2
0G]	.	0B-	.	0d_	.	.	0g]	.
=3	=3	=3	=3 	=3	=3	=3	=3	=3
0D	.	1A	-tum	0d]	.	.	0f	-tum
.	.	[1d	.	.	.	.	.	.
=4	=4	=4	=4	=4	=4	=4	=4	=4
1.E-i	-tum	1d]	.	1.G	tum	.	0g	.
.	.	1c	.	.	.	.	.	.
2D\	.	.	.	2A/	.	.	.	.
=5	=5	=5	=5	=5	=5	=5	=5	=5
0BB-	.	1d	.	1.B-	.	.	1f	.
.	.	[1f	tu-	.	.	.	[1d	.
.	.	.	.	2c\	.	.	.	.
=6	=6	=6	=6	=6	=6	=6	=6	=6
1.B-	tu-	2f\]	.	1d	.	.	2d/]	.
.	.	2e\	.	.	.	.	2e/	.
.	.	2d\	.	[1d	tu-	.	1f	tu-
2A\	.	2c\	.	.	.	.	.	.
=7	=7	=7	=7	=7	=7	=7	=7	=7
1G	.	1B-	.	2d\]	.	.	1g	.
.	.	.	.	2e\	.	.	.	.
1F	.	[1c	.	1f	.	.	[1a	.
=8	=8	=8	=8	=8	=8	=8	=8	=8
0E-i	.	2c\]	.	1g	.	.	2a/]	.
.	.	2B-\	.	.	.	.	2g/	.
.	.	1G	.	1c	.	.	[1g	.
=9	=9	=9	=9	=9	=9	=9	=9	=9
0D	-um	0A	.	0d	.	.	1g]	.
.	.	.	.	.	.	.	1f#i	.
=10	=10	=10	=10	=10	=10	=10	=10	=10
1r	.	[0G	-um	0B-	um	.	[0g	-um
[1d	de-	.	.	.	.	.	.	.
=11	=11	=11	=11	=11	=11	=11	=11	=11
2d\]	.	0G]	.	1G	.	.	0g]	.
2c\	.	.	.	.	.	.	.	.
[1B-	.	.	.	[1d	de-	.	.	.
=12	=12	=12	=12	=12	=12	=12	=12	=12
2B-\]	.	0B-	de-	2d\]	.	.	0r	.
2A\	.	.	.	2c\	.	.	.	.
1G	.	.	.	1B-	-pre-	.	.	.
=13	=13	=13	=13	=13	=13	=13	=13	=13
1F	.	1c	-pre-	1A	-ca-	.	0r	.
1BB-	-pre-	[1d	-ca-	1B-	.	.	.	.
=14	=14	=14	=14	=14	=14	=14	=14	=14
0B-	-ca-	1d]	.	0G	.	.	0r	.
.	.	1B-	.	.	.	.	.	.
=15	=15	=15	=15	=15	=15	=15	=15	=15
1A	.	1c	.	1F	.	.	0r	.
[1G	-bun-	[1e-i	-bun-	[1B-	-bun-	.	.	.
=16	=16	=16	=16	=16	=16	=16	=16	=16
2G\]	.	2e-\]	.	1B-]	.	.	0r	.
2F\	.	2d\	.	.	.	.	.	.
1D	-tur,	[1d	-tur,	1A	.	.	.	.
=17	=17	=17	=17	=17	=17	=17	=17	=17
0G	de-	1d]	.	1B-	-tur,	.	0r	.
.	.	1B-	de-	1G	de-	.	.	.
=18	=18	=18	=18	=18	=18	=18	=18	=18
1F	.	1c	-pre-	1A	-pre-	.	0r	.
1BB-	-pre-	[1d	-ca-	1B-	-ca-	.	.	.
=19	=19	=19	=19	=19	=19	=19	=19	=19
0B-	-ca-	1d]	.	1G	.	.	0r	.
.	.	1B-	.	1d	.	.	.	.
=20	=20	=20	=20	=20	=20	=20	=20	=20
1A	.	1c	.	1c	.	.	0r	.
[1G	-bun-	[1e-i	-bun-	[1B-	-bun-	.	.	.
=21	=21	=21	=21	=21	=21	=21	=21	=21
2G\]	.	2e-\]	.	2B-\]	.	.	0r	.
2F\	.	2d\	.	2A/	.	.	.	.
1D	.	[1d	.	[1A	.	.	.	.
=22	=22	=22	=22	=22	=22	=22	=22	=22
0E-i	.	1d]	.	1A]	.	.	0r	.
.	.	1c	.	1G	.	.	.	.
=23	=23	=23	=23	=23	=23	=23	=23	=23
[0D	-tur	[0d	-tur	1A	-tur,	.	1r	.
.	.	.	.	1F	.	.	[1a	de-
=24	=24	=24	=24	=24	=24	=24	=24	=24
0D]	.	0d]	.	1.f	de-	.	1a]	.
.	.	.	.	.	.	.	1f	.
.	.	.	.	4e\	.	.	.	.
.	.	.	.	4d\	.	.	.	.
=25	=25	=25	=25	=25	=25	=25	=25	=25
0r	.	0r	.	1e	.	.	1g	-pre-
.	.	.	.	1d	-pre-	.	[1b-	-ca-
=26	=26	=26	=26	=26	=26	=26	=26	=26
0r	.	0r	.	1.g	-ca-	.	1b-]	.
.	.	.	.	.	.	.	1g	.
.	.	.	.	4f\	.	.	.	.
.	.	.	.	4e\	.	.	.	.
=27	=27	=27	=27	=27	=27	=27	=27	=27
0r	.	0r	.	1f	-bun-	.	1a	-bun-
.	.	.	.	[1g	-tur	.	1b-	.
=28	=28	=28	=28	=28	=28	=28	=28	=28
0C	om-	0e-i	om-	1g]	.	.	0g	-tur
.	.	.	.	1c	om-	.	.	.
=29	=29	=29	=29	=29	=29	=29	=29	=29
[0G	-nes,	0d	-nes,	1B-	-nes,	.	1r	.
.	.	.	.	1G	.	.	[1b-	om-
=30	=30	=30	=30	=30	=30	=30	=30	=30
0G]	.	1d	om-	1.d	om-	.	1b-]	.
.	.	1B-	.	.	.	.	1g	.
.	.	.	.	2e\	.	.	.	.
=31	=31	=31	=31	=31	=31	=31	=31	=31
1F	om-	1c	.	1f	.	.	1a	.
1BB-	.	1d	.	1d	.	.	1b-	.
=32	=32	=32	=32	=32	=32	=32	=32	=32
0C	-nes	0e-i	-nes	0c	-nes	.	0g	-nes
=33	=33	=33	=33	=33	=33	=33	=33	=33
0G	.	0d	.	1.B-	di-	.	1r	.
.	.	.	.	.	.	.	[1b-	di-
.	.	.	.	2A/	.	.	.	.
=34	=34	=34	=34	=34	=34	=34	=34	=34
1r	.	0e-i	di-	2.G/	.	.	2b-\]	.
.	.	.	.	.	.	.	2a/	.
.	.	.	.	4F/	.	.	.	.
1C	di-	.	.	1c	.	.	1g	.
=35	=35	=35	=35	=35	=35	=35	=35	=35
1D	-vi-	0d	-vi-	0A	-vi-	.	1f	-vi-
1F	.	.	.	.	.	.	1a	.
=36	=36	=36	=36	=36	=36	=36	=36	=36
1E-i	-tes	1e-i	-tes	0B-	-tes	.	1g	-tes
1G	.	1d	.	.	.	.	1b-	.
=37	=37	=37	=37	=37	=37	=37	=37	=37
0F	.	1.f	ple-	0c	ple-	.	1a	ple-
.	.	.	.	.	.	.	1cc	.
.	.	2e-i\	.	.	.	.	.	.
=38	=38	=38	=38	=38	=38	=38	=38	=38
1r	.	1d	.	0f	.	.	1b-	.
1F	ple-	1c	.	.	.	.	[1a	.
=39	=39	=39	=39	=39	=39	=39	=39	=39
1G	.	1B-	.	1d	.	.	2a/]	.
.	.	.	.	.	.	.	2g/	.
1C	.	1c	.	1e-i	.	.	[1g	.
=40	=40	=40	=40	=40	=40	=40	=40	=40
0D	-bis,	0A	.	0d	.	.	1g]	.
.	.	.	.	.	.	.	1f#i	.
=41	=41	=41	=41	=41	=41	=41	=41	=41
1r	.	[0G	-bis	1B-	-bis	.	[0g	bis,
[1d	di-	.	.	1G	.	.	.	.
=42	=42	=42	=42	=42	=42	=42	=42	=42
2d\]	.	0G]	.	1.d	di-	.	0g]	.
2c\	.	.	.	.	.	.	.	.
2B-\	-vi-	.	.	.	.	.	.	.
2A\	.	.	.	2c\	.	.	.	.
=43	=43	=43	=43	=43	=43	=43	=43	=43
2G\	-tes	0r	.	2B-\	vi-	.	0r	.
2F\	.	.	.	2A/	.	.	.	.
2B-\	ple-	.	.	2G/	-tes	.	.	.
2c\	.	.	.	2F/	.	.	.	.
=44	=44	=44	=44	=44	=44	=44	=44	=44
1.d	.	0r	.	4B-\	ple-	.	0r	.
.	.	.	.	4c\	.	.	.	.
.	.	.	.	4d\	.	.	.	.
.	.	.	.	4e\	.	.	.	.
.	.	.	.	4f\	.	.	.	.
.	.	.	.	4g\	.	.	.	.
2c\	.	.	.	[2a\	.	.	.	.
=45	=45	=45	=45	=45	=45	=45	=45	=45
2B-\	.	0r	.	4a\]	.	.	0r	.
.	.	.	.	4g\	.	.	.	.
2G\	.	.	.	1g	.	.	.	.
1A	.	.	.	.	.	.	.	.
.	.	.	.	2f#i\	.	.	.	.
=46	=46	=46	=46	=46	=46	=46	=46	=46
0G	-bis.	0r	.	0g	bis.	.	0r	.
=47	=47	=47	=47	=47	=47	=47	=47	=47
*M3/1	*	*M3/1	*	*M3/1	*	*	*M3/1	*
*met(O/3)	*	*met(O/3)	*	*met(O/3)	*	*	*met(O/3)	*
1G	qui-	1g	qui-	1d	qui-	.	1b-	qui-
1G	-a	1g	-a	1d	-a	.	1b-	-a
1G	in	1g	in	1d	in	.	1b-	in
=48	=48	=48	=48	=48	=48	=48	=48	=48
0A	te	0f	te	0c	te	.	0cc	te
1A	so-	1f	so-	1c	so-	.	1a	so-
=49	=49	=49	=49	=49	=49	=49	=49	=49
0G	-la,	0g	-la,	0d	-la,	.	0b-	-la,
[1D	vir-	[1f	vir-	[1d	vir-	.	[1dd	vir-
=50	=50	=50	=50	=50	=50	=50	=50	=50
1D]	.	1f]	.	1d]	.	.	1dd]	.
0A	-gi-	0e	-gi-	0A	-gi-	.	0cc	-gi-
=51	=51	=51	=51	=51	=51	=51	=51	=51
0B-	-ne	0d	-ne	0f	-ne	.	0b-	-ne
[1F	Ma-	[1c	Ma-	[1f	Ma-	.	[1a	Ma-
=52	=52	=52	=52	=52	=52	=52	=52	=52
1F]	.	1c]	.	1f]	.	.	1a]	.
0G	-ri-	0B-	-ri-	0e	-ri-	.	0g	-ri-
=53	=53	=53	=53	=53	=53	=53	=53	=53
0.D	-a,	0A	-a,	0.d	-a,	.	0.f	-a,
.	.	1r	.	.	.	.	.	.
=54	=54	=54	=54	=54	=54	=54	=54	=54
1.F	om-	1.A	om-	0.r	.	.	0.r	.
2D\	.	2B-\	.	.	.	.	.	.
1E	-nis	1c	-nis	.	.	.	.	.
=55	=55	=55	=55	=55	=55	=55	=55	=55
0D	spes,	0d	spes	0.r	.	.	1.a	om-
.	.	.	.	.	.	.	2b-\	.
1r	.	1c	po-	.	.	.	1cc	-nis
=56	=56	=56	=56	=56	=56	=56	=56	=56
0.r	.	1B-	-si-	1.d	om-	.	0dd	spes
.	.	1G	.	.	.	.	.	.
.	.	.	.	2e\	.	.	.	.
.	.	1A	-ta	1f	-nis	.	1cc	po-
=57	=57	=57	=57	=57	=57	=57	=57	=57
0.r	.	0G	est,	0g	spes	.	1b-	-si-
.	.	.	.	.	.	.	1g	.
.	.	1r	.	1f	po-	.	1a	-ta
=58	=58	=58	=58	=58	=58	=58	=58	=58
0.r	.	0c	om-	1e	-si-	.	1.g	est,
.	.	.	.	1c	.	.	.	.
.	.	.	.	.	.	.	2a/	.
.	.	1B-	-nis	1d	-ta	.	1b-	.
=59	=59	=59	=59	=59	=59	=59	=59	=59
0.r	.	1A	spes	1.c	est,	.	0cc	om-
.	.	1F	.	.	.	.	.	.
.	.	.	.	2d\	.	.	.	.
.	.	1G	po-	1e	.	.	1b-	-nis
=60	=60	=60	=60	=60	=60	=60	=60	=60
0D	om-	1F	-si-	1f	om-	.	1a	spes
.	.	1.B-	.	1d	.	.	1f	.
1E	-nis	.	.	1G	-nis	.	1g	po-
.	.	2c\	.	.	.	.	.	.
=61	=61	=61	=61	=61	=61	=61	=61	=61
1.D	spes	1.d	.	1A	spes	.	1f	-si-
.	.	.	.	1.f	po-	.	0a	.
2E\	.	2c\	.	.	.	.	.	.
1F	po-	1A	-ta	.	.	.	.	.
.	.	.	.	2e\	.	.	.	.
=62	=62	=62	=62	=62	=62	=62	=62	=62
0G	-si-	1B-	est,	1.d	-si-	.	1g	.
.	.	0G	.	.	.	.	0b-	-ta
.	.	.	.	2B-\	.	.	.	.
1G	-ta	.	.	2.d\	-ta-	.	.	.
.	.	.	.	4e\	.	.	.	.
=63	=63	=63	=63	=63	=63	=63	=63	=63
1.F	est,	1.c	po-	0f	est,	.	1a	est,
.	.	.	.	.	.	.	1.cc	po-
2G\	.	2B-\	.	.	.	.	.	.
1A	.	2.A/	.	1F	po-	.	.	.
.	.	.	.	.	.	.	2b-\	.
.	.	4G/	.	.	.	.	.	.
=64	=64	=64	=64	=64	=64	=64	=64	=64
1D	po-	0d	.	1f	.	.	2a/	.
.	.	.	.	.	.	.	2g/	.
0G	.	.	.	1d	.	.	1.b-	-si-
.	.	1B-	.	[1e-i	-si-	.	.	.
.	.	.	.	.	.	.	2a/	.
=65	=65	=65	=65	=65	=65	=65	=65	=65
1C	-si-	1c	-si-	1e-]	.	.	0g	.
0D	-ta	0A	-ta	0d	-ta	.	.	.
.	.	.	.	.	.	.	1f#i	-ta
=66	=66	=66	=66	=66	=66	=66	=66	=66
0.Gl	est.	0.Gl	est.	0.dl	est.	.	0.gl	est.
!!LO:LB:i:g=z
=67||	=67||	=67||	=67||	=67||	=67||	=67||	=67||	=67||
*>B	*	*>B	*	*>B	*	*	*>B	*
!!section: Secunda pars: Sancta dei genitrix
!!!OMD: Secunda pars: Sancta dei genitrix
*M2/1	*	*M2/1	*	*M2/1	*	*	*M2/1	*
*met(C|)	*	*met(C|)	*	*met(C|)	*	*	*met(C|)	*
0r	.	0r	.	1.g	Sanc-	.	1.b-	Sanc-
.	.	.	.	2g\	-ta	.	2b-\	-ta
=68	=68	=68	=68	=68	=68	=68	=68	=68
0r	.	0r	.	1g	de-	.	1b-	de-
.	.	.	.	1a	-i	.	1a	-i
=69	=69	=69	=69	=69	=69	=69	=69	=69
0r	.	0r	.	1f	ge-	.	1.cc	ge-
.	.	.	.	1e	-ni-	.	.	.
.	.	.	.	.	.	.	2cc\	-ni-
=70	=70	=70	=70	=70	=70	=70	=70	=70
1.G	Sanc-	1.B-	Sanc-	1d	-trix,	.	0dd	-trix,
.	.	.	.	2G/	ge-	.	.	.
2G\	-ta	2B-\	-ta	[2d\	.	.	.	.
=71	=71	=71	=71	=71	=71	=71	=71	=71
1G	de-	1B-	de-	2d\]	.	.	0r	.
.	.	.	.	4c\	.	.	.	.
.	.	.	.	4B-\	.	.	.	.
1A	-i	1A	-i	2c\	.	.	.	.
.	.	.	.	[2A/	.	.	.	.
=72	=72	=72	=72	=72	=72	=72	=72	=72
1F	ge-	1.c	ge-	2A/]	.	.	0r	.
.	.	.	.	4G/	.	.	.	.
.	.	.	.	4F/	.	.	.	.
1E	-ni-	.	.	1G	-ni-	.	.	.
.	.	2c\	-ni-	.	.	.	.	.
=73	=73	=73	=73	=73	=73	=73	=73	=73
0D	-trix,	0d	-trix,	2A/	-trix,	.	1r	.
.	.	.	.	2B-\	.	.	.	.
.	.	.	.	2F/	.	.	1dd	vir-
.	.	.	.	[2f\	vir-	.	.	.
=74	=74	=74	=74	=74	=74	=74	=74	=74
0r	.	0r	.	2f\]	.	.	1dd	-go
.	.	.	.	2d\	-go	.	.	.
.	.	.	.	2e\	sem-	.	1cc	sem-
.	.	.	.	2f\	.	.	.	.
=75	=75	=75	=75	=75	=75	=75	=75	=75
0r	.	0r	.	2g\	-per	.	1b-	-per
.	.	.	.	2b-\	Ma-	.	.	.
.	.	.	.	4a\	-ri-	.	1cc	Ma-
.	.	.	.	4g\	.	.	.	.
.	.	.	.	4f\	.	.	.	.
.	.	.	.	4e\	.	.	.	.
=76	=76	=76	=76	=76	=76	=76	=76	=76
0r	.	0r	.	2d\	.	.	2b-\	-ri-
.	.	.	.	1g	.	.	2g/	.
.	.	.	.	.	.	.	1a	.
.	.	.	.	2f#i\	.	.	.	.
=77	=77	=77	=77	=77	=77	=77	=77	=77
1r	.	1r	.	0g	-a,	.	2.g/	.
.	.	.	.	.	.	.	4a/	.
1G	vir-	1d	vir-	.	.	.	4b-\	.
.	.	.	.	.	.	.	4cc\	.
.	.	.	.	.	.	.	[2dd\	.
=78	=78	=78	=78	=78	=78	=78	=78	=78
1B-	-go	1d	-go	2r	.	.	4dd\]	.
.	.	.	.	.	.	.	4cc\	.
.	.	.	.	2d\	vir-	.	4dd\	.
.	.	.	.	.	.	.	4b-\	.
1A	sem-	1c	sem-	2e\	-go	.	4cc\	.
.	.	.	.	.	.	.	4b-\	.
.	.	.	.	2f\	sem-	.	4cc\	.
.	.	.	.	.	.	.	4a/	.
=79	=79	=79	=79	=79	=79	=79	=79	=79
1G	-per	1B-	-per	1g	-per	.	4b-\	.
.	.	.	.	.	.	.	4a/	.
.	.	.	.	.	.	.	4b-\	.
.	.	.	.	.	.	.	4g/	.
1F	Ma-	1c	Ma-	2r	.	.	4a/	.
.	.	.	.	.	.	.	4g/	.
.	.	.	.	2A/	Ma-	.	4f/	.
.	.	.	.	.	.	.	4e/	.
=80	=80	=80	=80	=80	=80	=80	=80	=80
2G\	-ri-	2B-\	-ri-	2B-\	-ri-	.	2d/	.
2E\	.	2G/	.	2c\	.	.	1g	.
1D	.	1A	.	1d	.	.	.	.
.	.	.	.	.	.	.	2f#i/	.
=81	=81	=81	=81	=81	=81	=81	=81	=81
0G	-a,	[0G	-a,	0B-	-a,	.	[0g	-a,
=82	=82	=82	=82	=82	=82	=82	=82	=82
1r	.	0G]	.	1r	.	.	0g]	.
1G	de	.	.	1d	de	.	.	.
=83	=83	=83	=83	=83	=83	=83	=83	=83
1.d	cu-	0r	.	1.f	cu-	.	0r	.
2c\	-jus	.	.	2e\	-jus	.	.	.
=84	=84	=84	=84	=84	=84	=84	=84	=84
1B-	u-	0r	.	1d	u-	.	0r	.
1A	-te-	.	.	1c	-te-	.	.	.
=85	=85	=85	=85	=85	=85	=85	=85	=85
0B-	-ro	1r	.	1.B-	-ro	.	1r	.
.	.	1d	de	.	.	.	1dd	de
.	.	.	.	2c\	pro-	.	.	.
=86	=86	=86	=86	=86	=86	=86	=86	=86
0BB-	.	1.f	cu-	1d	-ces-	.	1.dd	cu-
.	.	.	.	1B-	.	.	.	.
.	.	2e\	-jus	.	.	.	2cc\	-jus
=87	=87	=87	=87	=87	=87	=87	=87	=87
1r	.	1d	u-	1.f	.	.	1b-	u-
1F	pro-	1c	-te-	.	.	.	1a	-te-
.	.	.	.	2e\	.	.	.	.
=88	=88	=88	=88	=88	=88	=88	=88	=88
1G	-ces-	1.B-	-ro	2d\	.	.	1b-	-ro
.	.	.	.	2B-\	.	.	.	.
1F	.	.	.	[1f	.	.	1cc	pro-
.	.	2A/	.	.	.	.	.	.
=89	=89	=89	=89	=89	=89	=89	=89	=89
2BB-/	.	1B-	.	2f\]	.	.	1dd	-ces-
2D\	.	.	.	2d\	.	.	.	.
1C	.	1c	pro-	1e	-sit	.	1g	-sit
=90	=90	=90	=90	=90	=90	=90	=90	=90
1BB-	-sit	1d	-ces-	2f\	sal-	.	1.b-	sal-
.	.	.	.	2.B-\	.	.	.	.
[1B-	sal-	1G	-sit	.	.	.	.	.
.	.	.	.	4c\	.	.	.	.
.	.	.	.	2d\	.	.	2a/	.
=91	=91	=91	=91	=91	=91	=91	=91	=91
2B-\]	.	1B-	sal-	2G/	.	.	1g	-va-
4A\	.	.	.	2d\	.	.	.	.
4G\	.	.	.	.	.	.	.	.
2A\	-va-	2A/	-va-	2c\	-va-	.	2f/	-tor
2G\	-tor	2B-\	-tor	2d\	-tor	.	[2g/	nos-
=92	=92	=92	=92	=92	=92	=92	=92	=92
2E-\	nos-	2c\	nos-	2e-i\	nos-	.	4g/]	.
.	.	.	.	.	.	.	4f/	.
2F\	.	2A/	.	1.c	.	.	1f	.
1C	.	1G	.	.	.	.	.	.
.	.	.	.	.	.	.	2e/	.
=93	=93	=93	=93	=93	=93	=93	=93	=93
0D	-ter	0F	ter	1A	ter	.	0f	-ter
.	.	.	.	1d	.	.	.	.
=94	=94	=94	=94	=94	=94	=94	=94	=94
1r	.	1r	.	1r	.	.	1r	.
[1E-	et	[1B-	et	[1G	et	.	[1g	et
=95	=95	=95	=95	=95	=95	=95	=95	=95
2E-\]	.	2B-\]	.	2G/]	.	.	2g/]	.
2E-i\	re-	2B-\	re-	2G/	re-	.	2g/	re-
2E-i\	-demp-	2B-\	-demp-	2G/	-demp-	.	2g/	-demp-
2E-i\	-ti-	2B-\	-ti-	2G/	-ti-	.	2g/	-ti-
=96	=96	=96	=96	=96	=96	=96	=96	=96
1E-i	-o-	1B-	-o	2.e-\	-o	.	1g	-o
.	.	.	.	4d\	.	.	.	.
2F\	mun-	2A/	mun-	2.c\	mun-	.	2f/	mun-
2C/	.	[2G/	.	.	.	.	[2e/	.
.	.	.	.	4B-\	.	.	.	.
=97	=97	=97	=97	=97	=97	=97	=97	=97
2D\	.	4G/]	.	2A/	.	.	4e/]	.
.	.	4F/	.	.	.	.	4d/	.
2BB-/	.	2D/	.	2G/	.	.	1d	.
1AA	-di,	1E	.	1A	-di,	.	.	.
.	.	.	.	.	.	.	2c#i/	.
=98	=98	=98	=98	=98	=98	=98	=98	=98
2r	.	[0D	-di,	2.F/	mun-	.	[0d	-di,
2D\	mun-	.	.	.	.	.	.	.
.	.	.	.	4G/	.	.	.	.
2.F\	.	.	.	2A/	.	.	.	.
.	.	.	.	2B-\	.	.	.	.
4G\	.	.	.	.	.	.	.	.
=99	=99	=99	=99	=99	=99	=99	=99	=99
2A\	.	0D_	.	2A/	.	.	0d_	.
2B-\	.	.	.	2.d\	.	.	.	.
2A\	.	.	.	.	.	.	.	.
.	.	.	.	4e\	.	.	.	.
[2d\	.	.	.	4f\	.	.	.	.
.	.	.	.	4g\	.	.	.	.
=100	=100	=100	=100	=100	=100	=100	=100	=100
2d\]	.	0D]	.	2a\	.	.	0d]	.
2B-\	.	.	.	1g	.	.	.	.
1A	-di,	.	.	.	.	.	.	.
.	.	.	.	2f#i\	.	.	.	.
=101	=101	=101	=101	=101	=101	=101	=101	=101
3%2GV	de-	0r	.	3%4gV	-di,	.	0r	.
3%2G	-pre-	.	.	.	.	.	.	.
3%2FZ	-ca-	.	.	3%2rZ	.	.	.	.
=102	=102	=102	=102	=102	=102	=102	=102	=102
3%2GV	-re	0r	.	3%2gV	de-	.	0r	.
3%2B-	fi-	.	.	3%2g	-pre-	.	.	.
3%2AZ	-li-	.	.	3%2fZ	-ca-	.	.	.
=103	=103	=103	=103	=103	=103	=103	=103	=103
3%4GV	-um	0r	.	3%2gV	-re	.	0r	.
.	.	.	.	3%2b-	fi-	.	.	.
3%2FZ	.	.	.	3%2aZ	-li-	.	.	.
=104	=104	=104	=104	=104	=104	=104	=104	=104
3%2GV	de-	3%2d	de-	3%4gV	-um,	.	0r	.
3%2B-	-pre-	3%2d	-pre-	.	.	.	.	.
3%2AZ	-ca-	3%2c	-ca-	3%2fZ	fi-	.	.	.
=105	=105	=105	=105	=105	=105	=105	=105	=105
3%2GV	-re	3%2d	-re	3%2gV	.	.	3%2ddV	de-
3%2D	fi-	3%2f	fi-	3%4aZ	-li-	.	3%2dd	-pre-
3%2AZ	-li-	3%2e	-li-	.	.	.	3%2ccZ	-ca-
=106	=106	=106	=106	=106	=106	=106	=106	=106
3%4DV	-um,	3%4dV	-um,	3%4fV	-um,	.	3%2ddV	-re
.	.	.	.	.	.	.	3%2ff	fi-
3%2rZ	.	3%2cZ	ut	3%2rZ	.	.	3%2eeZ	-li-
=107	=107	=107	=107	=107	=107	=107	=107	=107
0r	.	3%2dV	ex-	0r	.	.	3%4ddV	-um,
.	.	3%2f	-au-	.	.	.	.	.
.	.	3%2eZ	-di	.	.	.	3%2ccZ	ut
=108	=108	=108	=108	=108	=108	=108	=108	=108
0r	.	3%4dV	-re	0r	.	.	3%2ddV	ex-
.	.	.	.	.	.	.	3%2ff	-au-
.	.	3%2cZ	di-	.	.	.	3%2eeZ	-di-
=109	=109	=109	=109	=109	=109	=109	=109	=109
0r	.	3%2.fV	.	0r	.	.	3%2.ddV	-re
.	.	3e\	.	.	.	.	3cc\	.
.	.	3%2dZ	.	.	.	.	3b-\	.
.	.	.	.	.	.	.	3a/Z	.
=110	=110	=110	=110	=110	=110	=110	=110	=110
0r	.	3%2cV	.	0r	.	.	3%4aV	di-
.	.	3%4B-Z	-gne-	.	.	.	.	.
.	.	.	.	.	.	.	3%2gZ	-gne-
=111	=111	=111	=111	=111	=111	=111	=111	=111
0r	.	0A	-tur	0r	.	.	0a	-tur
=112	=112	=112	=112	=112	=112	=112	=112	=112
1r	.	1r	.	1r	.	.	1r	.
[1BB-	de-	[1d	de-	[1f	de-	.	[1b-	de-
=113	=113	=113	=113	=113	=113	=113	=113	=113
2BB-/]	.	2d\]	.	2f\]	.	.	2b-\]	.
2BB-/	-pre-	2d\	-pre-	2f\	-pre-	.	2b-\	-pre-
2BB-/	-ca-	2d\	-ca-	2f\	-ca-	.	2b-\	-ca-
2BB-/	-ti-	2d\	-ti-	2f\	-ti-	.	2b-\	-ti-
=114	=114	=114	=114	=114	=114	=114	=114	=114
2.F\	-o-	1c	-o-	1f	-o-	.	2cc\	-o-
.	.	.	.	.	.	.	1a	.
4E\	.	.	.	.	.	.	.	.
1D	-nem	1d	-nem	1f	-nem	.	.	.
.	.	.	.	.	.	.	2b-\	-nem
=115	=115	=115	=115	=115	=115	=115	=115	=115
1C	nos-	1e-	nos-	2g\	nos-	.	4cc\	nos-
.	.	.	.	.	.	.	4b-\	.
.	.	.	.	2c\	.	.	4a/	.
.	.	.	.	.	.	.	4g/	.
2BB-/	.	2d\	.	2.f\	.	.	2b-\	.
[2F\	.	[2c\	.	.	.	.	[2a/	.
.	.	.	.	4e\	.	.	.	.
=116	=116	=116	=116	=116	=116	=116	=116	=116
2F\]	.	2c\]	.	2f\	.	.	4a/]	.
.	.	.	.	.	.	.	4g/	.
2G\	.	2B-\	.	2.d\	.	.	1g	.
1D	.	1A	.	.	.	.	.	.
.	.	.	.	4c\	.	.	.	.
.	.	.	.	2d\	.	.	2f/	.
=117	=117	=117	=117	=117	=117	=117	=117	=117
2E-\	-tram	2G/	-tram,	2B-\	-tram,	.	2g/	-tram,
2D\	nos-	2d\	nos-	2.f\	nos-	.	1a	nos-
2.F\	.	2c\	.	.	.	.	.	.
.	.	.	.	4e\	.	.	.	.
.	.	2d\	.	2f\	.	.	2b-\	.
4E-i\	.	.	.	.	.	.	.	.
=118	=118	=118	=118	=118	=118	=118	=118	=118
1C	.	1e-i	.	2g\	.	.	4cc\	.
.	.	.	.	.	.	.	4b-\	.
.	.	.	.	2c\	.	.	4a/	.
.	.	.	.	.	.	.	4g/	.
2BB-/	.	2d\	.	2.f\	.	.	2b-\	.
[2F\	.	[2c\	.	.	.	.	[2a/	.
.	.	.	.	4e\	.	.	.	.
=119	=119	=119	=119	=119	=119	=119	=119	=119
2F\]	.	4c\]	.	2f\	.	.	2a/]	.
.	.	4B-\	.	.	.	.	.	.
2G\	.	4A/	.	2.d\	.	.	1g	.
.	.	4G/	.	.	.	.	.	.
1D	.	1A	.	.	.	.	.	.
.	.	.	.	4c\	.	.	.	.
.	.	.	.	2d\	.	.	2f#i/	.
=120	=120	=120	=120	=120	=120	=120	=120	=120
[0Gl	-tram.	[0Gl	-tram.	2B-\	.	.	[0gl	-tram.
.	.	.	.	1e-i	.	.	.	.
.	.	.	.	2d\	.	.	.	.
=121	=121	=121	=121	=121	=121	=121	=121	=121
0G]	.	0G]	.	0dl	-tram.	.	0g]	.
!!LO:LB:i:g=z
=122||	=122||	=122||	=122||	=122||	=122||	=122||	=122||	=122||
*>C	*	*>C	*	*>C	*	*	*>C	*
!!section: Tertia pars: O intemerata virgo
!!!OMD: Tertia pars: O intemerata virgo
*M2/1	*	*M2/1	*	*M2/1	*	*	*M2/1	*
*met(C|)	*	*met(C|)	*	*met(C|)	*	*	*met(C|)	*
0r	.	0r	.	1.g	O	.	0r	.
.	.	.	.	2g\	in-	.	.	.
=123	=123	=123	=123	=123	=123	=123	=123	=123
0r	.	0r	.	1g	-te-	.	1.dd	O
.	.	.	.	1f	-me-	.	.	.
.	.	.	.	.	.	.	2dd\	in-
=124	=124	=124	=124	=124	=124	=124	=124	=124
0r	.	0r	.	1g	-ra-	.	1dd	-te-
.	.	.	.	1e	.	.	1cc	-me-
=125	=125	=125	=125	=125	=125	=125	=125	=125
0r	.	0r	.	1d	-ta	.	1dd	-ra-
.	.	.	.	2.d\	vir-	.	1b-	-ta
.	.	.	.	4e\	.	.	.	.
=126	=126	=126	=126	=126	=126	=126	=126	=126
0r	.	0r	.	4f\	.	.	2.a/	vir-
.	.	.	.	4g\	.	.	.	.
.	.	.	.	1f	.	.	.	.
.	.	.	.	.	.	.	4b-\	.
.	.	.	.	.	.	.	4cc\	.
.	.	.	.	.	.	.	4dd\	.
.	.	.	.	4e\	.	.	[2cc\	.
.	.	.	.	4d\	.	.	.	.
=127	=127	=127	=127	=127	=127	=127	=127	=127
0r	.	0r	.	2c\	.	.	4cc\]	.
.	.	.	.	.	.	.	4b-\	.
.	.	.	.	1g	.	.	4a/	.
.	.	.	.	.	.	.	4g/	.
.	.	.	.	.	.	.	1a	.
.	.	.	.	2f#i\	.	.	.	.
=128	=128	=128	=128	=128	=128	=128	=128	=128
1.G	O	0r	.	1g	-go,	.	0g	-go,
.	.	.	.	1G	vir-	.	.	.
2G\	in-	.	.	.	.	.	.	.
=129	=129	=129	=129	=129	=129	=129	=129	=129
1G	-te-	1.d	O	1B-	.	.	0r	.
1F	-me-	.	.	1A	.	.	.	.
.	.	2d\	in-	.	.	.	.	.
=130	=130	=130	=130	=130	=130	=130	=130	=130
1G	-ra-	1d	-te-	1B-	.	.	0r	.
1E	.	1c	-me-	1G	.	.	.	.
=131	=131	=131	=131	=131	=131	=131	=131	=131
1D	-ta	1d	-ra-	1A	-go,	.	0r	.
2.D\	vir-	1B-	-ta	1r	.	.	.	.
4E\	.	.	.	.	.	.	.	.
=132	=132	=132	=132	=132	=132	=132	=132	=132
4F\	.	2.A/	vir-	0r	.	.	0r	.
4G\	.	.	.	.	.	.	.	.
1F	.	.	.	.	.	.	.	.
.	.	4B-\	.	.	.	.	.	.
.	.	4c\	.	.	.	.	.	.
.	.	4d\	.	.	.	.	.	.
4E\	.	[2c\	.	.	.	.	.	.
4D\	.	.	.	.	.	.	.	.
=133	=133	=133	=133	=133	=133	=133	=133	=133
2C/	.	4c\]	.	0r	.	.	0r	.
.	.	4B-\	.	.	.	.	.	.
1G	.	4A/	.	.	.	.	.	.
.	.	4G/	.	.	.	.	.	.
.	.	1A	.	.	.	.	.	.
2F#i\	.	.	.	.	.	.	.	.
=134	=134	=134	=134	=134	=134	=134	=134	=134
0G	-go,	0G	-go,	1d	que	.	1r	.
.	.	.	.	1e	re-	.	1g	que
=135	=135	=135	=135	=135	=135	=135	=135	=135
1r	.	0r	.	1f	-dem-	.	1a	re-
1G	que	.	.	1g	-pto-	.	1b-	-dem-
=136	=136	=136	=136	=136	=136	=136	=136	=136
1A	re-	0r	.	2e\	-rem	.	1cc	-pto
.	.	.	.	2.f\	Is-	.	.	.
2F\	-dem-	.	.	.	.	.	2a/	-rem
.	.	.	.	4e\	.	.	.	.
[2G\	-pto-	.	.	4d\	.	.	[2b-\	Is-
.	.	.	.	4c\	.	.	.	.
=137	=137	=137	=137	=137	=137	=137	=137	=137
4G\]	.	1r	.	2B-\	.	.	4b-\]	.
4F\	-rem	.	.	.	.	.	4a/	.
2D\	Is-	.	.	1d	-ra-	.	4g/	.
.	.	.	.	.	.	.	4f/	.
1E	-ra-	1G	que	.	.	.	1g	-ra-
.	.	.	.	2c#i\	.	.	.	.
=138	=138	=138	=138	=138	=138	=138	=138	=138
0D	-el	1A	re-	1d	-el,	.	0f	-el
.	.	1B-	-demp-	1d	Is-	.	.	.
=139	=139	=139	=139	=139	=139	=139	=139	=139
0r	.	1c	-to	1e	.	.	0r	.
.	.	2A/	-rem	2f\	.	.	.	.
.	.	[2B-\	Is-	[2g\	.	.	.	.
=140	=140	=140	=140	=140	=140	=140	=140	=140
1r	.	4B-\]	.	2g\]	.	.	1r	.
.	.	4A/	.	.	.	.	.	.
.	.	4G/	.	1f	-ra-	.	.	.
.	.	4F/	.	.	.	.	.	.
1C	pe-	1G	-ra-	.	.	.	1g	pe-
.	.	.	.	2e\	.	.	.	.
=141	=141	=141	=141	=141	=141	=141	=141	=141
2.F\	.	0F	-el	0f	-el	.	2.a/	.
4G\	.	.	.	.	.	.	4b-\	.
2A\	-pe-	.	.	.	.	.	2cc\	-pe-
[2B-\	-ri-	.	.	.	.	.	[2dd\	-ri-
=142	=142	=142	=142	=142	=142	=142	=142	=142
4B-\]	.	1r	.	1.d	.	.	4dd\]	.
4A\	.	.	.	.	.	.	4cc\	.
1G	.	.	.	.	.	.	4b-\	.
.	.	.	.	.	.	.	4a/	.
.	.	1G	pe-	.	.	.	2b-\	.
4F\	.	.	.	2e\	.	.	4a/	.
4E\	.	.	.	.	.	.	4g/	.
=143	=143	=143	=143	=143	=143	=143	=143	=143
2D\	.	2.A/	.	0f	.	.	2f/	.
2.F\	.	.	.	.	.	.	2.a/	.
.	.	4B-\	.	.	.	.	.	.
.	.	2c\	-pe-	.	.	.	.	.
4E\	.	.	.	.	.	.	4g/	.
4D\	.	[2d\	-ri-	.	.	.	[2b-\	.
4C/	.	.	.	.	.	.	.	.
=144	=144	=144	=144	=144	=144	=144	=144	=144
2BB-/	.	4d\]	.	2r	.	.	4b-\]	.
.	.	4c\	.	.	.	.	4a/	.
2F\	.	4B-\	.	2f\	pe-	.	1a	.
.	.	4A/	.	.	.	.	.	.
1G	.	1B-	.	2.d\	-pe-	.	.	.
.	.	.	.	.	.	.	2g/	.
.	.	.	.	4e\	.	.	.	.
=145	=145	=145	=145	=145	=145	=145	=145	=145
1D	-sti,	0A	-sti,	1.f	-ri-	.	0a	-sti,
[1F	pe-	.	.	.	.	.	.	.
.	.	.	.	4e\	.	.	.	.
.	.	.	.	4d\	.	.	.	.
=146	=146	=146	=146	=146	=146	=146	=146	=146
2F\]	.	1F	.	2c\	.	.	0r	.
4E\	-pe-	.	.	1d	.	.	.	.
4D\	.	.	.	.	.	.	.	.
1E	-ri-	1G	.	.	.	.	.	.
.	.	.	.	2c#i\	.	.	.	.
=147	=147	=147	=147	=147	=147	=147	=147	=147
0D	-sti,	0A	.	0d	-sti,	.	1r	.
.	.	.	.	.	.	.	1f	et
=148	=148	=148	=148	=148	=148	=148	=148	=148
0r	.	0r	.	1G	et	.	2g/	post
.	.	.	.	.	.	.	2b-\	par-
.	.	.	.	[1d	post	.	2a/	.
.	.	.	.	.	.	.	[2b-\	.
=149	=149	=149	=149	=149	=149	=149	=149	=149
0r	.	1r	.	2d\]	.	.	2b-\]	.
.	.	.	.	2e\	.	.	4a/	.
.	.	.	.	.	.	.	4g/	.
.	.	1F	et	1f	par-	.	1a	.
=150	=150	=150	=150	=150	=150	=150	=150	=150
2r	.	2G/	post	1B-	.	.	1g	-tum
2G\	et	2B-\	par-	.	.	.	.	.
2F\	post	2A/	.	2c\	.	.	1r	.
2D\	.	[2B-\	.	[2d\	.	.	.	.
=151	=151	=151	=151	=151	=151	=151	=151	=151
1E-i	par-	2B-\]	.	2d\]	.	.	2r	.
.	.	4A/	.	2c\	.	.	1g	vir-
.	.	4G/	.	.	.	.	.	.
1D	-tum	1A	.	1d	-tum	.	.	.
.	.	.	.	.	.	.	2f/	.
=152	=152	=152	=152	=152	=152	=152	=152	=152
0r	.	1G	-tum	2r	.	.	2g/	.
.	.	.	.	2.g\	vir-	.	2.b-\	.
.	.	1r	.	.	.	.	.	.
.	.	.	.	4f\	.	.	4a/	.
.	.	.	.	4e\	.	.	[2cc\	.
.	.	.	.	4d\	.	.	.	.
=153	=153	=153	=153	=153	=153	=153	=153	=153
0r	.	2r	.	2f\	.	.	4cc\]	.
.	.	.	.	.	.	.	4b-\	.
.	.	1G	vir-	2B-\	.	.	1b-	.
.	.	.	.	1c	.	.	.	.
.	.	2F/	.	.	.	.	2a/	.
=154	=154	=154	=154	=154	=154	=154	=154	=154
2r	.	2G/	.	1B-	-go	.	1b-	-go
1G	vir-	2.B-\	.	.	.	.	.	.
.	.	.	.	1r	.	.	1r	.
.	.	4A/	.	.	.	.	.	.
2E\	.	[2c\	.	.	.	.	.	.
=155	=155	=155	=155	=155	=155	=155	=155	=155
2F\	.	4c\]	.	0r	.	.	0r	.
.	.	4B-\	.	.	.	.	.	.
2D\	.	1B-	.	.	.	.	.	.
1C	.	.	.	.	.	.	.	.
.	.	2A/	.	.	.	.	.	.
=156	=156	=156	=156	=156	=156	=156	=156	=156
2BB-/	-go	1B-	-go	2.d\	per-	.	1r	.
1B-	per-	.	.	.	.	.	.	.
.	.	.	.	4e\	.	.	.	.
.	.	1d	per-	2f\	.	.	1b-	per-
4A\	-man-	.	.	2g\	.	.	.	.
4G\	.	.	.	.	.	.	.	.
=157	=157	=157	=157	=157	=157	=157	=157	=157
2A\	-si-	2c\	.	2e\	.	.	1a	.
2F\	.	2d\	.	2f\	.	.	.	.
1G	-sti,	2B-\	.	2d\	.	.	1b-	-man-
.	.	2d\	-man-	2g\	-man-	.	.	.
=158	=158	=158	=158	=158	=158	=158	=158	=158
2r	.	2c\	-si-	2e\	-si-	.	2.cc\	-si-
2D\	per-	2d\	.	2.f\	.	.	.	.
.	.	.	.	.	.	.	4b-\	.
2.F\	.	2A/	.	.	.	.	4a/	.
.	.	.	.	4e\	.	.	4g/	.
.	.	[2c\	.	4c\	.	.	[2a/	.
4E\	.	.	.	4d\	.	.	.	.
=159	=159	=159	=159	=159	=159	=159	=159	=159
2C/	.	4c\]	.	2e\	.	.	2a/]	.
.	.	4B-\	.	.	.	.	.	.
2E\	-man-	2G/	.	2c\	.	.	1g	.
1D	-si-	1A	.	1d	-sti.	.	.	.
.	.	.	.	.	.	.	2f#i/	.
=160	=160	=160	=160	=160	=160	=160	=160	=160
0G	-sti	0G	-sti.	1.B-	De-	.	1g	-sti.
.	.	.	.	.	.	.	1r	.
.	.	.	.	4A/	.	.	.	.
.	.	.	.	4G/	.	.	.	.
=161	=161	=161	=161	=161	=161	=161	=161	=161
0r	.	0r	.	1A	.	.	1f	De-
.	.	.	.	1G	-i	.	1g	.
=162	=162	=162	=162	=162	=162	=162	=162	=162
0r	.	1.B-	De-	0r	.	.	1g	-i
.	.	.	.	.	.	.	1r	.
.	.	4A/	.	.	.	.	.	.
.	.	4G/	.	.	.	.	.	.
=163	=163	=163	=163	=163	=163	=163	=163	=163
0r	.	1A	.	1r	.	.	1f	ge-
.	.	1G	-i	2r	.	.	[1g	.
.	.	.	.	[2g\	ge-	.	.	.
=164	=164	=164	=164	=164	=164	=164	=164	=164
0r	.	0r	.	2g\]	.	.	2g/]	.
.	.	.	.	2f\	.	.	2a/	.
.	.	.	.	2d\	.	.	2b-\	.
.	.	.	.	[2e-\	.	.	[2cc\	.
=165	=165	=165	=165	=165	=165	=165	=165	=165
0r	.	1r	.	4e-\]	.	.	4cc\]	.
.	.	.	.	4d\	.	.	4b-\	.
.	.	.	.	4c\	.	.	1b-	.
.	.	.	.	4B-\	.	.	.	.
.	.	1F	ge-	1c	.	.	.	.
.	.	.	.	.	.	.	2a/	-ni-
=166	=166	=166	=166	=166	=166	=166	=166	=166
2r	.	2.G/	.	2.B-\	.	.	1b-	-trix,
1G	De-	.	.	.	.	.	.	.
.	.	4A/	.	4A/	.	.	.	.
.	.	2B-\	.	4G/	.	.	1r	.
.	.	.	.	4F/	.	.	.	.
2E\	-i	[2c\	.	2G/	.	.	.	.
=167	=167	=167	=167	=167	=167	=167	=167	=167
2F\	ge-	4c\]	.	2A/	.	.	0r	.
.	.	4B-\	.	.	.	.	.	.
2D\	.	1B-	.	1F	.	.	.	.
1C	-ni-	.	.	.	.	.	.	.
.	.	2A/	-ni-	2E/	-ni-	.	.	.
=168	=168	=168	=168	=168	=168	=168	=168	=168
0BB-	-trix,	0B-	-trix,	2F/	-trix,	.	1r	.
.	.	.	.	2.B-\	in	.	.	.
.	.	.	.	.	.	.	1b-	in-
.	.	.	.	4c\	.	.	.	.
.	.	.	.	4d\	.	.	.	.
.	.	.	.	4e\	.	.	.	.
=169	=169	=169	=169	=169	=169	=169	=169	=169
0r	.	0r	.	2.f\	.	.	2a/	.
.	.	.	.	.	.	.	2cc\	.
.	.	.	.	4e\	.	.	.	.
.	.	.	.	2d\	.	.	2b-\	-ter-
.	.	.	.	2c\	-ter-	.	[2a/	-ce-
=170	=170	=170	=170	=170	=170	=170	=170	=170
0r	.	1r	.	2d\	-ce-	.	2a/]	.
.	.	.	.	2A/	-de	.	4g/	.
.	.	.	.	.	.	.	4f/	.
.	.	1B-	in-	1r	.	.	1g	.
=171	=171	=171	=171	=171	=171	=171	=171	=171
2.F\	in-	2A/	.	0r	.	.	1a	-de
.	.	2c\	.	.	.	.	.	.
4E\	.	.	.	.	.	.	.	.
2D\	.	2B-\	-ter-	.	.	.	1r	.
2C/	-ter-	[2A/	-ce-	.	.	.	.	.
=172	=172	=172	=172	=172	=172	=172	=172	=172
2D\	-ce-	2A/]	.	0r	.	.	0r	.
2AA/	.	4G/	.	.	.	.	.	.
.	.	4F/	.	.	.	.	.	.
1BB-	.	1G	.	.	.	.	.	.
=173	=173	=173	=173	=173	=173	=173	=173	=173
1AA	-de	0A	-de	1c	pro	.	1r	.
1D	pro	.	.	1d	.	.	1f	pro
=174	=174	=174	=174	=174	=174	=174	=174	=174
1Cni	no-	0r	.	2e\	no-	.	1g	no-
.	.	.	.	2c\	.	.	.	.
1G	.	.	.	2.d\	.	.	1b-	.
.	.	.	.	4e\	.	.	.	.
=175	=175	=175	=175	=175	=175	=175	=175	=175
1F	.	1r	.	1f	-bis,	.	2a/	.
.	.	.	.	.	.	.	2.cc\	.
1c	.	1F	pro	1f	pro	.	.	.
.	.	.	.	.	.	.	4b-\	.
.	.	.	.	.	.	.	2a/	.
=176	=176	=176	=176	=176	=176	=176	=176	=176
1B-	.	1G	no-	1d	no-	.	2g/	.
.	.	.	.	.	.	.	2.b-\	.
1G	.	1B-	.	1g	.	.	.	.
.	.	.	.	.	.	.	4cc\	.
.	.	.	.	.	.	.	2dd\	.
=177	=177	=177	=177	=177	=177	=177	=177	=177
1A	.	2A/	.	1e	.	.	2cc\	.
.	.	2.c\	.	.	.	.	2.a/	.
1F	.	.	.	1f	.	.	.	.
.	.	4B-\	.	.	.	.	4b-\	.
.	.	2A/	.	.	.	.	2cc\	.
=178	=178	=178	=178	=178	=178	=178	=178	=178
1G	-bis,	2G/	.	2.d\	.	.	2b-\	.
.	.	2.B-\	.	.	.	.	2.dd\	.
.	.	.	.	4e\	.	.	.	.
2r	.	.	.	2f\	.	.	.	.
.	.	4c\	.	.	.	.	4cc\	.
2G\	pro	2d\	.	2g\	.	.	[2b-\	.
=179	=179	=179	=179	=179	=179	=179	=179	=179
4A\	no-	2c\	.	2e\	.	.	4b-\]	.
4G\	.	.	.	.	.	.	4a/	.
4F\	.	2.A/	.	2f\	.	.	2.cc\	.
4E\	.	.	.	.	.	.	.	.
[1F	.	.	.	2c\	.	.	.	.
.	.	4B-\	.	.	.	.	4b-\	.
.	.	[2c\	.	[2f\	.	.	4a/	.
.	.	.	.	.	.	.	4g/	.
=180	=180	=180	=180	=180	=180	=180	=180	=180
2F\]	.	4c\]	.	4f\]	.	.	2a/	.
.	.	4B-\	.	4e\	.	.	.	.
2G\	.	4A/	.	4d\	.	.	1g	.
.	.	4G/	.	4c\	.	.	.	.
1D	.	1A	.	1d	.	.	.	.
.	.	.	.	.	.	.	2f#i/	.
=181	=181	=181	=181	=181	=181	=181	=181	=181
[0G	-bis,	0G	-bis,	1B-	-bis,	.	1g	-bis,
.	.	.	.	1G	.	.	1r	.
=182	=182	=182	=182	=182	=182	=182	=182	=182
0G]	.	0r	.	3%4gV	et	.	3%4b-V	et
.	.	.	.	3%2gZ	ne	.	3%2b-Z	ne
=183	=183	=183	=183	=183	=183	=183	=183	=183
0r	.	0r	.	3%2fV	de-	.	3%2aV	de-
.	.	.	.	3%2g	-spi-	.	3%2b-	-spi-
.	.	.	.	3%2eZ	-ci-	.	3%2ccZ	-ci-
=184	=184	=184	=184	=184	=184	=184	=184	=184
0r	.	0r	.	3%4dV	-as	.	3%4ddV	-as
.	.	.	.	3%2eZ	pre-	.	3%2ccZ	pre-
=185	=185	=185	=185	=185	=185	=185	=185	=185
0r	.	0r	.	3%2gV	-ces	.	3%2b-V	-ces
.	.	.	.	3%2.f#i	no-	.	3%4aZ	no-
.	.	.	.	3e\Z	.	.	.	.
=186	=186	=186	=186	=186	=186	=186	=186	=186
!! Cannot start and stop tuplet in muse2ps [20111017], so placing a
!! italic three above the note to indicate that it is triplet
!	!	!	!	!LO:TX:Z=15:i:t=3	!	!	!LO:TX:Z=-20:i:t=3	!
3%4GV	et	3%4B-V	et	3%4.g	-stras.	.	3%4.g	-stras
3%2GZ	ne	3%2B-Z	ne	.	.	.	.	.
=187	=187	=187	=187	=187	=187	=187	=187	=187
3%2FV	de-	3%2AV	de-	0r	.	.	0r	.
3%2G	-spi-	3%2B-	-spi-	.	.	.	.	.
3%2EZ	-ci-	3%2cZ	-ci-	.	.	.	.	.
=188	=188	=188	=188	=188	=188	=188	=188	=188
3%4DV	-as	3%4dV	-as	0r	.	.	0r	.
3%2EZ	pre-	3%2cZ	pre-	.	.	.	.	.
=189	=189	=189	=189	=189	=189	=189	=189	=189
3%2GV	-ces	3%2B-V	-ces	0r	.	.	0r	.
3%2.F#i	no-	3%4AZ	-no-	.	.	.	.	.
3E\Z	.	.	.	.	.	.	.	.
=190	=190	=190	=190	=190	=190	=190	=190	=190
!! Cannot start and stop tuplet in muse2ps [20111017], so placing a
!! italic three above the note to indicate that it is triplet
!LO:TX:Z=5:i:t=3	!	!LO:TX:Z=-10:i:t=3	!	!	!	!	!	!
3%4.G	-stras.	3%4.B-	-stras.	0r	.	.	3%4b-V	qui-
.	.	.	.	.	.	.	3%2ccZ	-a
=191	=191	=191	=191	=191	=191	=191	=191	=191
0r	.	0r	.	3%4B-V	qui-	.	3%4ddV	o-
.	.	.	.	3%2cZ	-a	.	3%2ee-iZ	-re
=192	=192	=192	=192	=192	=192	=192	=192	=192
0r	.	0r	.	3%4dV	o-	.	3%2ddV	in-
.	.	.	.	.	.	.	3%2b-	.
.	.	.	.	3%2eZ	-re	.	3%2ccZ	-di-
=193	=193	=193	=193	=193	=193	=193	=193	=193
0r	.	3%4B-V	qui-	3%2fV	in-	.	3%4ddV	-gno
.	.	.	.	3%2g	.	.	.	.
.	.	3%2cZ	-a	3%2eZ	-di-	.	3%2rZ	.
=194	=194	=194	=194	=194	=194	=194	=194	=194
3%4BB-V	qui-	3%4dV	o-	3%4dV	-gno	.	0r	.
3%2CZ	-a	3%2e-iZ	-re	3%2cZ	no-	.	.	.
=195	=195	=195	=195	=195	=195	=195	=195	=195
3%4DV	o-	3%2dV	in-	3%2AV	.	.	0r	.
.	.	3%2B-	.	3%2B-	.	.	.	.
3%2E-iZ	-re	3%2cZ	-di-	3%2GZ	.	.	.	.
=196	=196	=196	=196	=196	=196	=196	=196	=196
3%2DV	in-	3%4dV	-gno	3%2AV	.	.	3%4ddV	no-
3%2BB-	.	.	.	3%2B-	.	.	.	.
3%2CZ	-di-	3%2rZ	.	3%2GZ	-men	.	3%2eeZ	-men
=197	=197	=197	=197	=197	=197	=197	=197	=197
3%4DV	-gno	0r	.	3%2FV	sanc-	.	3%4ffV	sanc-
.	.	.	.	3%2B-	.	.	.	.
3%2rZ	.	.	.	3%2cZ	-tum	.	3%2eeZ	-tum
=198	=198	=198	=198	=198	=198	=198	=198	=198
3%4DV	no-	3%4dV	no-	3%2dV	tu-	.	3%2.ddV	tu-
.	.	.	.	3%2A	.	.	.	.
.	.	.	.	.	.	.	3cc\	.
3%2GZ	-men	3%2eZ	-men	3%2B-Z	.	.	3%2b-Z	.
=199	=199	=199	=199	=199	=199	=199	=199	=199
3%2FV	-sanc-	3%4fV	sanc-	3%2cV	um	.	3%4aV	-um
3%2D	.	.	.	3%2d	.	.	.	.
3%2AZ	-tum	3%2eZ	-tum	3%2AZ	in	.	3%2ccZ	in
=200	=200	=200	=200	=200	=200	=200	=200	=200
3%2B-V	tu-	3%2.dV	tu-	3%2.fV	vo-	.	3%2b-V	vo-
3%2F	.	.	.	.	.	.	3%2a	.
.	.	3c\	.	3e\	.	.	.	.
3%2GZ	.	3%2B-Z	.	3%2dZ	-ca-	.	3%2b-Z	-ca-
=201	=201	=201	=201	=201	=201	=201	=201	=201
3%2AV	-um	3%4AV	-um	3%2cV	.	.	3%2ccV	.
3%4FZ	in	.	.	3%4fZ	.	.	3%4aZ	.
.	.	3%2cZ	in	.	.	.	.	.
=202	=202	=202	=202	=202	=202	=202	=202	=202
3%2GV	vo-	3%2B-V	vo-	3%2eV	.	.	3%2gV	.
3%2F	.	3%2A	.	3%2f	.	.	3%2.a	.
3%2GZ	-ca-	3%2B-Z	-ca-	3%2dZ	.	.	.	.
.	.	.	.	.	.	.	3g/Z	.
=203	=203	=203	=203	=203	=203	=203	=203	=203
3%2CV	-re	3%2cV	.	3%2e-iV	.	.	3%4gV\	.
3%4DZ	vi-	3%4AZ	-vi-	3%4dZ	-vi-	.	.	.
.	.	.	.	.	.	.	3%2f#iZ\	-vi-
=204	=204	=204	=204	=204	=204	=204	=204	=204
1.d	-mus.	[0G	-mus.	1B-	-mus.	.	0g	-mus.
.	.	.	.	1G	.	.	.	.
[2B-\	.	.	.	.	.	.	.	.
=205	=205	=205	=205	=205	=205	=205	=205	=205
4B-\]	.	0G]	.	2r	.	.	0r	.
4A\	.	.	.	.	.	.	.	.
1G	.	.	.	2d\	O	.	.	.
.	.	.	.	2d\	glo-	.	.	.
4F\	.	.	.	2e\	-ri-	.	.	.
4E\	.	.	.	.	.	.	.	.
=206	=206	=206	=206	=206	=206	=206	=206	=206
1D	.	0r	.	2.f\	-o-	.	2r	.
.	.	.	.	.	.	.	2dd\	O
.	.	.	.	4e\	-sa	.	.	.
1r	.	.	.	2d\	do-	.	2dd\	glo-
.	.	.	.	2c\	-mi-	.	2ee\	-ri-
=207	=207	=207	=207	=207	=207	=207	=207	=207
0r	.	2r	.	1d	-na,	.	2.ff\	-o-
.	.	2d\	O	.	.	.	.	.
.	.	.	.	.	.	.	4ee\	-sa
.	.	2d\	glo-	1r	.	.	2dd\	do-
.	.	2e\	-ri-	.	.	.	2cc\	-mi-
=208	=208	=208	=208	=208	=208	=208	=208	=208
2r	.	2.f\	-o-	0r	.	.	1dd	-na,
2D\	O	.	.	.	.	.	.	.
.	.	4e\	-sa	.	.	.	.	.
2D\	glo-	2d\	do-	.	.	.	1r	.
2E\	-ri-	2c\	-mi-	.	.	.	.	.
=209	=209	=209	=209	=209	=209	=209	=209	=209
2.F\	-o-	1d	-na,	2r	.	.	0r	.
.	.	.	.	2A/	pro	.	.	.
4E\	-sa	.	.	.	.	.	.	.
2D\	do-	1r	.	2B-\	no-	.	.	.
2C/	-mi-	.	.	2c\	.	.	.	.
=210	=210	=210	=210	=210	=210	=210	=210	=210
1D	-na,	1r	.	2A/	.	.	2r	.
.	.	.	.	2.d\	.	.	2dd\	pro-
[1G	pro	2r	.	.	.	.	2.dd\	no-
.	.	.	.	4c\	.	.	.	.
.	.	2d\	pro	4B-\	.	.	.	.
.	.	.	.	4A/	.	.	4cc\	.
=211	=211	=211	=211	=211	=211	=211	=211	=211
2G\]	.	2.d\	no-	2G/	-bis,	.	2b-\	.
2D\	.	.	.	2.d\	pro	.	2a/	.
.	.	4c\	.	.	.	.	.	.
2G\	no-	2B-\	.	.	.	.	2g/	-bis,
.	.	.	.	4e\	.	.	.	.
2F\	.	2A/	.	2f\	.	.	2cc\	pro
=212	=212	=212	=212	=212	=212	=212	=212	=212
2G\	-bis,	2G/	-bis,	2d\	no-	.	2b-\	no-
2F\	pro-	2c\	pro	2f\	.	.	2a/	.
2G\	no-	2B-\	no-	2e\	-bis	.	2g/	-bis
2F\	-bis	2A/	.	2f\	sem-	.	2cc\	sem-
=213	=213	=213	=213	=213	=213	=213	=213	=213
2G\	sem-	2G/	-bis	2d\	.	.	2b-\	-per
2C/	-per	2c\	sem-	2e\	.	.	2.g/	Chri-
2.G\	Chri-	2B-\	-per	1d	-per	.	.	.
.	.	.	.	.	.	.	4a/	.
.	.	[2G/	Chri-	.	.	.	4b-\	.
4A\	.	.	.	.	.	.	4cc\	.
=214	=214	=214	=214	=214	=214	=214	=214	=214
4B-\	.	4G/]	.	2.G/	Chri-	.	2dd\	.
4c\	.	4A/	.	.	.	.	.	.
2d\	.	4B-\	.	.	.	.	2g/	-stum
.	.	4c\	.	4A/	.	.	.	.
2G\	-stum	2d\	.	4B-\	.	.	2r	.
.	.	.	.	4c\	.	.	.	.
[2B-\	ex-	2G/	-stum	2d\	.	.	[2dd\	ex-
=215	=215	=215	=215	=215	=215	=215	=215	=215
4B-\]	.	2r	.	2G/	-stum	.	4dd\]	.
4A\	.	.	.	.	.	.	4cc\	.
4G\	.	1d	ex-	1g	ex-	.	4b-\	.
4F\	.	.	.	.	.	.	4a/	.
2G\	.	.	.	.	.	.	2b-\	.
2A\	.	[2c\	-o-	2e\	.	.	4cc\	-o-
.	.	.	.	.	.	.	4b-\	.
=216	=216	=216	=216	=216	=216	=216	=216	=216
2F\	-o-	2c\]	.	2f\	-o-	.	4a/	.
.	.	.	.	.	.	.	4g/	.
2G\	.	2B-\	.	2.d\	.	.	1g	.
1Dl	.	1Al	.	.	.	.	.	.
.	.	.	.	4c\	.	.	.	.
.	.	.	.	2A/l	.	.	2f#i/l	.
=217	=217	=217	=217	=217	=217	=217	=217	=217
0G	-ra.	0G	-ra.	0B-	-ra.	.	0g	-ra.
!!LO:LB:i:g=z
==	==	==	==	==	==	==	==	==
*-	*-	*-	*-	*-	*-	*-	*-	*-
!!!RDF**kern: V=start of tuplet marker
!!!RDF**kern: Z=end of tuplet marker
!!!RDF**kern: l=long note in original notation
!!!RDF**kern: i=editorial accidental
!!!ENC: Will Watson 11/07/2011
!!!END: 2011/07/11/
!!!EED: Jesse Rodin
!!!EEV: 2024/03/08/
!!attribution-level@Jos: 1 (secure, core group [checkmark])
!!!ONB: Translated from MusicXML and edited on 2011/10/17/ by Craig Sapp
!!muse2ps: C^@{COM}^i2I150v90,90,90,120c122z18l2700t130
